; generated by PrusaSlicer 2.5.0+win64 on 2023-05-03 at 13:12:40 UTC

; 

; external perimeters extrusion width = 0.42mm
; perimeters extrusion width = 0.44mm
; infill extrusion width = 0.44mm
; solid infill extrusion width = 0.44mm
; top infill extrusion width = 0.40mm
; support material extrusion width = 0.36mm
; first layer extrusion width = 0.42mm

M201 X500 Y500 Z100 E5000 ; sets maximum accelerations, mm/sec^2
M203 X500 Y500 Z10 E60 ; sets maximum feedrates, mm / sec
M204 P500 R1000 T500 ; sets acceleration (P, T) and retract acceleration (R), mm/sec^2
M205 X8.00 Y8.00 Z0.40 E5.00 ; sets the jerk limits, mm/sec
M205 S0 T0 ; sets the minimum extruding and travel feed rate, mm/sec
M107
;TYPE:Custom
G90 ; use absolute coordinates
M83 ; extruder relative mode
M104 S150 ; set temporary nozzle temp to prevent oozing during homing
M140 S60 ; set final bed temp
G4 S30 ; allow partial nozzle warmup
G28 ; home all axis
G1 Z50 F240
G1 X2.0 Y10 F3000
M104 S210 ; set final nozzle temp
M190 S60 ; wait for bed temp to stabilize
M109 S210 ; wait for nozzle temp to stabilize
G1 Z0.28 F240
G92 E0
G1 X2.0 Y140 E10 F1500 ; prime the nozzle
G1 X2.3 Y140 F5000
G92 E0
G1 X2.3 Y10 E10 F1200 ; prime the nozzle
G92 E0
G21 ; set units to millimeters
G90 ; use absolute coordinates
M83 ; use relative distances for extrusion
; Filament gcode
M107
;LAYER_CHANGE
;Z:0.2
;HEIGHT:0.2
;BEFORE_LAYER_CHANGE
G92 E0
;0.2


G1 E-5 F3600
G1 Z.2 F9000
;AFTER_LAYER_CHANGE
;0.2
G1 X84.773 Y88.302
G1 E5 F2400
M204 S500
;TYPE:Skirt/Brim
;WIDTH:0.42
G1 F1200
G1 X102.081 Y71.686 E.75228
G1 X103.496 Y70.875 E.05115
G1 X104.417 Y70.747 E.02915
G1 X114.266 Y70.747 E.30878
G1 X115.776 Y71.104 E.04866
G1 X118.41 Y72.421 E.09234
G1 X119.236 Y73.003 E.0317
G1 X152.215 Y104.664 E1.43339
G1 X153.055 Y106.062 E.05115
G1 X153.204 Y107.052 E.03138
G1 X153.204 Y115.583 E.26749
G1 X152.81 Y117.166 E.05115
G1 X152.064 Y118.112 E.03777
G1 X117.82 Y148.405 E1.43352
G1 X115.583 Y149.253 E.07502
G1 X105.734 Y149.253 E.30878
G1 X103.511 Y148.417 E.07449
G1 X71.901 Y120.758 E1.31695
G1 X69.102 Y117.971 E.12385
G1 X68.262 Y116.572 E.05115
G1 X68.113 Y115.583 E.03138
G1 X68.113 Y105.734 E.30878
G1 X68.507 Y104.151 E.05115
G1 X69.102 Y103.347 E.03138
G1 X84.73 Y88.344 E.67923
; printing object dent.stl id:0 copy 0
G1 E-3.5 F3600
;WIPE_START
G1 F7200
G1 X86.894 Y86.266 E-1.425
;WIPE_END
G1 E-.075 F3600
G1 X103.637 Y96.829 F9000
G1 E5 F2400
;TYPE:Support material interface
;WIDTH:0.36
G1 F1200
G1 X103.415 Y96.829 E.00585
G1 X103.415 Y95.512 E.03473
G1 X103.795 Y95.512 E.01003
G1 X103.795 Y96.829 E.03473
G1 X104.312 Y96.829 E.01363
G1 X104.312 Y95.512 E.03473
G1 X104.732 Y95.512 E.01106
G1 X104.732 Y96.829 E.03473
G1 X104.471 Y96.829 E.00688
G1 E-3.5 F3600
;WIPE_START
G1 F7200
G1 X104.732 Y96.829 E-.124
G1 X104.732 Y95.512 E-.62565
G1 X104.312 Y95.512 E-.1993
G1 X104.312 Y96.514 E-.47605
;WIPE_END
G1 E-.075 F3600
G1 X104.471 Y100.78 F9000
G1 E5 F2400
G1 F1200
G1 X104.732 Y100.78 E.00688
G1 X104.732 Y98.146 E.06945
G1 X104.312 Y98.146 E.01106
G1 X104.312 Y100.78 E.06945
G1 X103.795 Y100.78 E.01363
G1 X103.795 Y98.146 E.06945
G1 X103.278 Y98.146 E.01363
G1 X103.278 Y99.027 E.02322
G1 X103.415 Y99.045 E.00363
G1 X103.415 Y99.887 E.02222
G1 X103.278 Y99.727 E.00555
G1 X103.278 Y100.78 E.02777
G1 X102.761 Y100.78 E.01363
G1 X102.761 Y98.146 E.06945
G1 X102.244 Y98.146 E.01363
G1 X102.244 Y100.78 E.06945
G1 X103.278 Y102.098 F9000
G1 F1200
G1 X103.278 Y104.732 E.06945
G1 X102.761 Y104.732 E.01363
G1 X102.761 Y102.098 E.06945
G1 X102.244 Y102.098 E.01363
G1 X102.244 Y104.732 E.06945
G1 E-3.5 F3600
;WIPE_START
G1 F7200
G1 X102.244 Y102.098 E-1.25125
G1 X102.61 Y102.098 E-.17375
;WIPE_END
G1 E-.075 F3600
G1 X115.529 Y100.78 F9000
G1 E5 F2400
G1 F1200
G1 X115.268 Y100.78 E.00688
G1 X115.268 Y98.146 E.06945
G1 X115.688 Y98.146 E.01106
G1 X115.688 Y100.78 E.06945
G1 X116.205 Y100.78 E.01363
G1 X116.205 Y98.146 E.06945
G1 X116.563 Y98.146 E.00945
G1 X117.756 Y98.146 F9000
G1 F1200
G1 X117.756 Y101.854 E.09776
G1 X117.663 Y101.75 E.00369
G1 X117.278 Y101.667 E.01038
G1 X117.239 Y101.684 E.00113
G1 X117.239 Y98.146 E.09327
G1 X116.722 Y98.146 E.01363
G1 X116.722 Y101.92 E.09949
G1 X116.585 Y102.068 E.00532
G1 X116.585 Y101.595 E.01249
G1 X117.468 Y102.085 F9000
;TYPE:Support material
;WIDTH:0.42
G1 F1200
G1 X117.686 Y102.329 E.01027
G1 X117.716 Y102.393 E.00219
G1 X117.744 Y102.619 E.00717
G1 X117.722 Y102.839 E.00692
G1 X117.316 Y102.797 E.0128
G1 X117.267 Y102.638 E.00521
G1 X117.237 Y102.432 E.00654
G1 X117.093 Y102.213 E.00822
G1 X117.204 Y102.312 E.00465
G1 X117.459 Y102.127 E.00989
G1 X118.115 Y102.097 F9000
;TYPE:Support material interface
;WIDTH:0.36
G1 F1200
G1 X117.973 Y102.097 E.00373
G1 X118.073 Y102.286 E.00563
G1 X118.097 Y102.454 E.00447
G1 X118.949 Y102.098 F9000
G1 F1200
G1 X119.22 Y102.098 E.00714
G1 X119.22 Y105.851 E.09897
G1 X118.9 Y105.498 E.01256
G1 X118.558 Y105.675 F9000
;TYPE:Support material
;WIDTH:0.42
G1 F1200
G1 X118.969 Y106.137 E.0194
G1 X119.043 Y106.175 E.0026
G1 X119.04 Y106.229 E.00171
G1 X118.893 Y106.268 E.00476
G1 X118.795 Y106.203 E.00366
G1 X118.488 Y105.756 E.017
G1 X118.506 Y105.686 E.00226
G1 X118.403 Y105.308 F9000
;TYPE:Support material interface
;WIDTH:0.36
G1 F1200
G1 X118.427 Y105.291 E.00078
G1 X118.732 Y105.322 E.00809
G1 X118.79 Y105.384 E.00223
G1 X118.79 Y102.098 E.08665
G1 X118.273 Y102.097 E.01363
G1 X118.273 Y103.515 E.03737
G1 X118.338 Y103.73 E.00592
G1 X118.273 Y103.848 E.00355
G1 X118.273 Y105.399 E.04088
G1 X118.226 Y105.432 E.00152
G1 X118.138 Y105.574 E.00441
G1 X118.11 Y105.753 E.00478
G1 X118.144 Y105.906 E.00413
G1 X118.273 Y106.095 E.00602
G1 X118.273 Y107.366 E.03352
G1 X117.902 Y107.366 E.00978
G1 X117.902 Y104.732 E.06945
G1 X117.756 Y104.732 E.00386
G1 X117.756 Y104.141 E.01557
G1 X117.709 Y104.179 E.00159
G1 X117.239 Y104.081 E.01267
G1 X117.239 Y104.732 E.01717
G1 X116.722 Y104.732 E.01363
G1 X116.722 Y103.827 E.02386
G1 X116.585 Y103.718 E.00461
G1 X116.585 Y104.71 E.02616
G1 X117.528 Y103.376 F9000
;TYPE:Support material
;WIDTH:0.42
G1 F1200
G1 X117.643 Y103.621 E.00852
G1 X117.644 Y103.757 E.00425
G1 X117.613 Y103.782 E.00125
G1 X117.474 Y103.753 E.00446
G1 X117.607 Y103.664 E.00505
G1 X117.538 Y103.418 E.008
G1 E-3.5 F3600
;WIPE_START
G1 F7200
G1 X117.607 Y103.664 E-.12114
G1 X117.474 Y103.753 E-.07646
G1 X117.613 Y103.782 E-.06761
G1 X117.644 Y103.757 E-.019
G1 X117.643 Y103.621 E-.06446
G1 X117.528 Y103.376 E-.12912
;WIPE_END
G1 E-1.02221 F3600
G1 X118.363 Y106.225 F9000
G1 E5 F2400
;TYPE:Support material interface
;WIDTH:0.36
G1 F1200
G1 X118.552 Y106.482 E.0084
G1 X118.715 Y106.601 E.00533
G1 X118.79 Y106.622 E.00206
G1 X118.79 Y107.366 E.01962
G1 X119.307 Y107.366 E.01363
G1 X119.307 Y106.522 E.02224
G1 X119.395 Y106.489 E.00246
G1 X119.418 Y106.049 E.01163
G1 X119.825 Y106.049 E.0107
G1 X119.825 Y107.366 E.03473
G1 X120.342 Y107.366 E.01363
G1 X120.342 Y106.049 E.03473
G1 X120.537 Y106.049 E.00514
G1 X120.537 Y106.426 E.00994
G1 E-3.5 F3600
;WIPE_START
G1 F7200
G1 X120.537 Y106.049 E-.17903
G1 X120.342 Y106.049 E-.09267
G1 X120.342 Y107.366 E-.62564
G1 X119.825 Y107.366 E-.24561
G1 X119.825 Y106.772 E-.28206
;WIPE_END
G1 E-.075 F3600
G1 X117.756 Y95.512 F9000
G1 E5 F2400
G1 F1200
G1 X117.756 Y96.829 E.03473
G1 X117.239 Y96.829 E.01363
G1 X117.239 Y95.512 E.03473
G1 X116.722 Y95.512 E.01363
G1 X116.722 Y96.829 E.03473
G1 X116.205 Y96.829 E.01363
G1 X116.205 Y95.512 E.03473
G1 X115.688 Y95.512 E.01363
G1 X115.688 Y96.829 E.03473
G1 X115.268 Y96.829 E.01106
G1 X115.268 Y95.512 E.03473
G1 X115.529 Y95.512 E.00688
G1 E-3.5 F3600
;WIPE_START
G1 F7200
G1 X115.268 Y95.512 E-.12398
G1 X115.268 Y96.829 E-.62565
G1 X115.688 Y96.829 E-.19929
G1 X115.688 Y95.827 E-.47608
;WIPE_END
G1 E-.075 F3600
G1 X114.266 Y75.442 F9000
G1 E5 F2400
;TYPE:Support material
;WIDTH:0.42
G1 F1200
G1 X116.9 Y75.442 E.08259
G1 X116.9 Y79.393 E.12389
G1 X118.217 Y79.393 E.0413
G1 X118.217 Y83.344 E.12389
G1 X119.534 Y83.344 E.0413
G1 X119.534 Y87.295 E.12389
G1 X120.851 Y87.295 E.0413
G1 X120.851 Y99.149 E.37167
G1 X122.168 Y99.149 E.0413
G1 X122.168 Y101.783 E.08259
G1 X123.485 Y101.783 E.0413
G1 X123.485 Y103.1 E.0413
G1 X140.607 Y103.1 E.53685
G1 X140.607 Y104.417 E.0413
G1 X145.875 Y104.417 E.16518
G1 X145.875 Y105.734 E.0413
G1 X148.51 Y105.734 E.08259
G1 X148.51 Y107.052 E.0413
G1 X149.827 Y107.052 E.0413
G1 X149.827 Y115.583 E.26749
G1 X147.193 Y115.583 E.08259
G1 X147.193 Y116.9 E.0413
G1 X145.875 Y116.9 E.0413
G1 X145.875 Y118.217 E.0413
G1 X144.558 Y118.217 E.0413
G1 X144.558 Y119.534 E.0413
G1 X141.924 Y119.534 E.08259
G1 X141.924 Y120.851 E.0413
G1 X140.607 Y120.851 E.0413
G1 X140.607 Y122.168 E.0413
G1 X123.485 Y122.168 E.53685
G1 X123.485 Y123.485 E.0413
G1 X122.168 Y123.485 E.0413
G1 X122.168 Y124.802 E.0413
G1 X120.851 Y124.802 E.0413
G1 X120.851 Y136.656 E.37166
G1 X119.534 Y136.656 E.0413
G1 X119.534 Y139.29 E.08259
G1 X118.217 Y139.29 E.0413
G1 X118.217 Y141.924 E.08259
G1 X116.9 Y141.924 E.0413
G1 X116.9 Y143.241 E.0413
G1 X115.583 Y143.241 E.0413
G1 X115.583 Y145.875 E.08259
G1 X105.734 Y145.875 E.30878
G1 X105.734 Y144.558 E.0413
G1 X104.417 Y144.558 E.0413
G1 X104.417 Y141.924 E.08259
G1 X101.783 Y141.924 E.08259
G1 X101.783 Y139.29 E.08259
G1 X100.466 Y139.29 E.0413
G1 X100.466 Y134.022 E.16518
G1 X99.149 Y134.022 E.0413
G1 X99.149 Y123.485 E.33037
G1 X96.515 Y123.485 E.08259
G1 X96.515 Y122.168 E.0413
G1 X79.393 Y122.168 E.53685
G1 X79.393 Y119.534 E.08259
G1 X76.759 Y119.534 E.08259
G1 X76.759 Y118.217 E.0413
G1 X74.125 Y118.217 E.08259
G1 X74.125 Y116.9 E.0413
G1 X72.807 Y116.9 E.0413
G1 X72.807 Y115.583 E.0413
G1 X71.49 Y115.583 E.0413
G1 X71.49 Y105.734 E.30878
G1 X72.807 Y105.734 E.0413
G1 X72.807 Y104.417 E.0413
G1 X79.393 Y104.417 E.20648
G1 X79.393 Y103.1 E.0413
G1 X96.515 Y103.1 E.53685
G1 X96.515 Y101.783 E.0413
G1 X97.832 Y101.783 E.0413
G1 X97.832 Y99.149 E.08259
G1 X99.149 Y99.149 E.0413
G1 X99.149 Y88.612 E.33037
G1 X100.466 Y88.612 E.0413
G1 X100.466 Y83.344 E.16518
G1 X101.783 Y83.344 E.0413
G1 X101.783 Y79.393 E.12389
G1 X103.1 Y79.393 E.0413
G1 X103.1 Y75.442 E.12389
G1 X104.417 Y75.442 E.0413
G1 X104.417 Y74.125 E.0413
G1 X114.266 Y74.125 E.30878
G1 X114.266 Y75.385 E.03952
G1 X108.997 Y89.241 F9000
G1 F1200
G1 X108.997 Y91.875 E.08259
G1 X107.68 Y91.875 E.0413
G1 X107.68 Y99.778 E.24778
G1 X106.046 Y99.778 E.05124
G1 X106.046 Y107.027 E.2273
G1 X105.046 Y105.855 E.04831
G1 X105.046 Y110.314 E.13982
G1 X102.412 Y110.314 E.08259
G1 X102.412 Y111.631 E.0413
G1 X86.607 Y111.631 E.49555
G1 X86.607 Y112.948 E.0413
G1 X85.29 Y112.948 E.0413
G1 X85.29 Y113.637 E.02159
G1 X89.93 Y113.637 E.14548
G1 X89.93 Y112.32 E.0413
G1 X101.095 Y112.32 E.35008
G1 X101.095 Y113.637 E.0413
G1 X105.046 Y113.637 E.12389
G1 X105.046 Y114.954 E.0413
G1 X107.68 Y114.954 E.08259
G1 X107.68 Y118.905 E.12389
G1 X108.997 Y118.905 E.0413
G1 X108.997 Y126.808 E.24778
G1 X111.003 Y126.808 E.06288
G1 X111.003 Y118.905 E.24778
G1 X112.32 Y118.905 E.0413
G1 X112.32 Y116.271 E.08259
G1 X114.954 Y116.271 E.08259
G1 X114.954 Y113.637 E.08259
G1 X118.905 Y113.637 E.12389
G1 X118.905 Y112.32 E.0413
G1 X125.491 Y112.32 E.20648
G1 X125.491 Y111.631 E.02159
G1 X117.588 Y111.631 E.24778
G1 X117.588 Y110.314 E.0413
G1 X114.954 Y110.314 E.08259
G1 X114.954 Y104.734 E.17495
G1 X115.318 Y104.734 E.01142
G1 X114.502 Y103.032 E.0592
G1 X115.47 Y102.386 E.0365
G1 X115.309 Y101.638 E.02399
G1 X116.217 Y101.149 E.03232
G1 X116.215 Y102.611 E.04584
G1 X116.273 Y103.18 E.01791
G1 X116.217 Y103.194 E.00182
G1 X116.217 Y105.1 E.05977
G1 X117.534 Y105.1 E.0413
G1 X117.534 Y107.734 E.08259
G1 X120.905 Y107.734 E.10571
G1 X120.905 Y105.68 E.06441
G1 X119.588 Y105.68 E.0413
G1 X119.588 Y101.729 E.12389
G1 X118.271 Y101.729 E.0413
G1 X118.271 Y97.778 E.12389
G1 X114.9 Y97.778 E.10571
G1 X114.9 Y98.143 E.01147
G1 X112.32 Y98.143 E.08089
G1 X112.32 Y91.875 E.19654
G1 X111.003 Y91.875 E.0413
G1 X111.003 Y89.241 E.08259
G1 X109.054 Y89.241 E.06111
G1 E-3.5 F3600
;WIPE_START
G1 F7200
G1 X111.003 Y89.241 E-.92579
G1 X111.003 Y90.292 E-.49921
;WIPE_END
G1 E-.075 F3600
G1 X134.022 Y111.631 F9000
G1 E5 F2400
G1 F1200
G1 X134.022 Y112.948 E.0413
G1 X130.071 Y112.948 E.12389
G1 X130.071 Y113.637 E.02159
G1 X134.71 Y113.637 E.14548
G1 X134.71 Y112.32 E.0413
G1 X136.027 Y112.32 E.0413
G1 X136.027 Y111.631 E.02159
G1 X134.078 Y111.631 E.06111
G1 E-3.5 F3600
;WIPE_START
G1 F7200
G1 X136.027 Y111.631 E-.92579
G1 X136.027 Y112.32 E-.32704
G1 X135.665 Y112.32 E-.17217
;WIPE_END
G1 E-.075 F3600
G1 X101.729 Y105.1 F9000
G1 E5 F2400
G1 F1200
G1 X103.783 Y105.1 E.06441
G1 X103.783 Y101.729 E.10571
G1 X101.729 Y101.729 E.06441
G1 X101.729 Y105.044 E.10394
G1 X101.729 Y97.778 F9000
G1 F1200
G1 X101.729 Y101.149 E.10571
G1 X105.1 Y101.149 E.10571
G1 X105.1 Y97.778 E.10571
G1 X101.785 Y97.778 E.10394
G1 E-3.5 F3600
;WIPE_START
G1 F7200
G1 X104.785 Y97.778 E-1.425
;WIPE_END
G1 E-.075 F3600
G1 X114.9 Y97.198 F9000
G1 E5 F2400
G1 F1200
G1 X118.271 Y97.198 E.10571
G1 X118.271 Y95.143 E.06441
G1 X114.9 Y95.143 E.10571
G1 X114.9 Y97.141 E.06264
G1 E-3.5 F3600
;WIPE_START
G1 F7200
G1 X114.9 Y95.143 E-.94897
G1 X115.902 Y95.143 E-.47603
;WIPE_END
G1 E-.075 F3600
G1 X103.046 Y97.198 F9000
G1 E5 F2400
G1 F1200
G1 X105.1 Y97.198 E.06441
G1 X105.1 Y95.143 E.06441
G1 X103.046 Y95.143 E.06441
G1 X103.046 Y97.141 E.06264
G1 E-3.5 F3600
;WIPE_START
G1 F7200
G1 X103.046 Y95.143 E-.94897
G1 X104.048 Y95.143 E-.47603
;WIPE_END
G1 E-.075 F3600
G1 X149.384 Y115.413 F9000
G1 E5 F2400
G1 F1200
G1 X149.384 Y107.391 E.25152
G1 X148.965 Y107.391 E.01314
G1 X148.965 Y115.243 E.2462
G1 X148.546 Y115.243 E.01314
G1 X148.546 Y107.391 E.2462
G1 X148.17 Y107.391 E.01178
G1 X148.17 Y106.074 E.0413
G1 X148.127 Y106.074 E.00136
G1 X148.127 Y115.243 E.2875
G1 X147.708 Y115.243 E.01314
G1 X147.708 Y106.074 E.2875
G1 X147.289 Y106.074 E.01314
G1 X147.289 Y115.243 E.2875
G1 X146.87 Y115.243 E.01314
G1 X146.87 Y106.074 E.2875
G1 X146.451 Y106.074 E.01314
G1 X146.451 Y116.56 E.3288
G1 X146.032 Y116.56 E.01314
G1 X146.032 Y106.074 E.3288
G1 X145.613 Y106.074 E.01314
G1 X145.613 Y116.56 E.3288
G1 X145.536 Y116.56 E.00241
G1 X145.536 Y117.877 E.0413
G1 X145.194 Y117.877 E.01072
G1 X145.194 Y104.757 E.41139
G1 X144.775 Y104.757 E.01314
G1 X144.775 Y117.877 E.41139
G1 X144.356 Y117.877 E.01314
G1 X144.356 Y104.757 E.41139
G1 X143.937 Y104.757 E.01314
G1 X143.937 Y119.194 E.45268
G1 X143.518 Y119.194 E.01314
G1 X143.518 Y104.757 E.45268
G1 X143.099 Y104.757 E.01314
G1 X143.099 Y119.194 E.45268
G1 X142.68 Y119.194 E.01314
G1 X142.68 Y104.757 E.45268
G1 X142.261 Y104.757 E.01314
G1 X142.261 Y119.194 E.45268
G1 X141.842 Y119.194 E.01314
G1 X141.842 Y104.757 E.45268
G1 X141.423 Y104.757 E.01314
G1 X141.423 Y120.512 E.49398
G1 X141.004 Y120.512 E.01314
G1 X141.004 Y104.757 E.49398
G1 X140.585 Y104.757 E.01314
G1 X140.585 Y120.512 E.49398
G1 X140.268 Y120.512 E.00996
G1 X140.268 Y121.829 E.0413
G1 X140.166 Y121.829 E.00318
G1 X140.166 Y103.44 E.57657
G1 X139.747 Y103.44 E.01314
G1 X139.747 Y121.829 E.57657
G1 X139.328 Y121.829 E.01314
G1 X139.328 Y103.44 E.57657
G1 X138.909 Y103.44 E.01314
G1 X138.909 Y121.829 E.57657
G1 X138.49 Y121.829 E.01314
G1 X138.49 Y103.44 E.57657
G1 X138.071 Y103.44 E.01314
G1 X138.071 Y121.829 E.57657
G1 X137.652 Y121.829 E.01314
G1 X137.652 Y103.44 E.57657
G1 X137.234 Y103.44 E.01314
G1 X137.234 Y121.829 E.57657
G1 X136.815 Y121.829 E.01314
G1 X136.815 Y103.44 E.57657
G1 X136.396 Y103.44 E.01314
G1 X136.396 Y121.829 E.57657
G1 X135.977 Y121.829 E.01314
G1 X135.977 Y112.659 E.2875
G1 X135.558 Y112.659 E.01314
G1 X135.558 Y121.829 E.2875
G1 X135.139 Y121.829 E.01314
G1 X135.139 Y112.659 E.2875
G1 X135.05 Y112.659 E.00279
G1 X135.05 Y113.976 E.0413
G1 X134.72 Y113.976 E.01035
G1 X134.72 Y121.829 E.2462
G1 X134.301 Y121.829 E.01314
G1 X134.301 Y113.976 E.2462
G1 X133.882 Y113.976 E.01314
G1 X133.882 Y121.829 E.2462
G1 X133.463 Y121.829 E.01314
G1 X133.463 Y113.976 E.2462
G1 X133.044 Y113.976 E.01314
G1 X133.044 Y121.829 E.2462
G1 X132.625 Y121.829 E.01314
G1 X132.625 Y113.976 E.2462
